tools/download-figma-icons/icons/solid/cup.svg

<svg width="24" height="25" viewBox="0 0 24 25" fill="none" xmlns="http://www.w3.org/2000/svg">
<path fill-rule="evenodd" clip-rule="evenodd" d="M12.8101 5.25937C12.8101 5.55187 12.4951 6.00937 12.2776 6.22687C11.9851 6.51937 11.9851 6.99187 12.2776 7.28437C12.4276 7.43437 12.6151 7.50187 12.8101 7.50187C13.0051 7.50187 13.1926 7.42687 13.3426 7.28437C13.4401 7.18687 14.3101 6.28687 14.3101 5.25187C14.3101 4.21687 13.7476 3.63188 13.3426 3.21938C12.9751 2.85188 12.8101 2.67188 12.8101 2.25187C12.8101 1.83188 12.9751 1.65188 13.3426 1.28438C13.6351 0.991875 13.6351 0.519375 13.3426 0.219375C13.0501 -0.073125 12.5776 -0.073125 12.2776 0.219375L12.2578 0.239513C11.8545 0.64997 11.3101 1.20411 11.3101 2.25187C11.3101 3.29964 11.8545 3.85378 12.2578 4.26424L12.2776 4.28437C12.6451 4.65187 12.8101 4.83187 12.8101 5.25187V5.25937ZM18.81 10.5095H18.0075V9.75952C18.0075 9.34702 17.67 9.00952 17.2575 9.00952H3C2.5875 9.00952 2.25 9.34702 2.25 9.75952V18.0095C2.25 21.317 4.9425 24.0095 8.25 24.0095H12.0075C14.79 24.0095 17.13 22.1045 17.805 19.5245H18.825C20.4675 19.5095 21.81 18.167 21.81 16.517V13.5095C21.81 11.852 20.4675 10.5095 18.81 10.5095ZM8.31 21.7595C6.24 21.7595 4.56 20.0795 4.56 18.0095C4.56 17.597 4.8975 17.2595 5.31 17.2595C5.7225 17.2595 6.06 17.597 6.06 18.0095C6.06 19.247 7.0725 20.2595 8.31 20.2595C8.7225 20.2595 9.06 20.597 9.06 21.0095C9.06 21.422 8.7225 21.7595 8.31 21.7595ZM20.31 16.517C20.31 17.342 19.6425 18.017 18.8175 18.017H18C18 18.017 18.0075 18.017 18.0075 18.0095V12.0095H18.81C19.635 12.0095 20.31 12.6845 20.31 13.5095V16.517ZM7.02756 6.22687C7.24506 6.00937 7.56006 5.55187 7.56006 5.25937V5.25187C7.56006 4.83187 7.39506 4.65187 7.02756 4.28437C7.021 4.2777 7.01441 4.27099 7.00778 4.26424C6.6045 3.85378 6.06006 3.29964 6.06006 2.25187C6.06006 1.20411 6.6045 0.64997 7.00778 0.239513C7.01441 0.232762 7.021 0.22605 7.02756 0.219375C7.32756 -0.073125 7.80006 -0.073125 8.09256 0.219375C8.38506 0.519375 8.38506 0.991875 8.09256 1.28438C7.72506 1.65188 7.56006 1.83188 7.56006 2.25187C7.56006 2.67188 7.72506 2.85188 8.09256 3.21938C8.49756 3.63188 9.06006 4.21687 9.06006 5.25187C9.06006 6.28687 8.19006 7.18687 8.09256 7.28437C7.94256 7.42687 7.75506 7.50187 7.56006 7.50187C7.36506 7.50187 7.17756 7.43437 7.02756 7.28437C6.73506 6.99187 6.73506 6.51937 7.02756 6.22687Z" fill="black"/>
</svg>

<svg xmlns="http://www.w3.org/2000/svg" width="24" height="25" fill="none" viewBox="0 0 24 25"><path fill="currentColor" fill-rule="evenodd" d="M12.81 5.26c0 .292-.315.75-.532.967a.747.747 0 0 0 .532 1.275.77.77 0 0 0 .533-.218c.097-.097.967-.997.967-2.032s-.562-1.62-.967-2.033c-.368-.367-.533-.547-.533-.967s.165-.6.533-.968a.756.756 0 0 0 0-1.065.756.756 0 0 0-1.065 0l-.02.02c-.403.411-.948.965-.948 2.013s.544 1.602.948 2.012l.02.02c.367.368.532.548.532.968zm6 5.25h-.802v-.75a.75.75 0 0 0-.75-.75H3a.75.75 0 0 0-.75.75v8.25c0 3.307 2.693 6 6 6h3.758c2.782 0 5.122-1.905 5.797-4.486h1.02a3.017 3.017 0 0 0 2.985-3.007v-3.008a3 3 0 0 0-3-3M8.31 21.76c-2.07 0-3.75-1.68-3.75-3.75 0-.413.338-.75.75-.75.413 0 .75.337.75.75a2.257 2.257 0 0 0 2.25 2.25c.412 0 .75.337.75.75 0 .412-.338.75-.75.75m12-5.243c0 .825-.668 1.5-1.492 1.5H18s.008 0 .008-.008v-6h.802c.825 0 1.5.675 1.5 1.5zM7.028 6.227c.217-.218.532-.675.532-.968v-.007c0-.42-.165-.6-.532-.968l-.02-.02c-.404-.41-.948-.964-.948-2.012S6.605.65 7.008.24l.02-.02a.756.756 0 0 1 1.065 0c.292.3.292.772 0 1.064-.368.368-.533.548-.533.968s.165.6.533.967c.405.413.967.998.967 2.033s-.87 1.935-.967 2.032a.77.77 0 0 1-.533.218.747.747 0 0 1-.532-1.275" clip-rule="evenodd"/></svg>
